sourses/img/Vector6.svg

<svg width="100" height="80" viewBox="0 0 100 80" fill="none" xmlns="http://www.w3.org/2000/svg">
<path d="M99.2707 22.5981L77.247 0.57051C76.5032 -0.174034 75.3016 -0.192286 74.5358 0.530203C72.8254 2.14173 64.786 9.71266 64.6696 9.82597C64.6628 9.83282 64.6552 9.8389 64.6483 9.84575C62.744 11.7501 60.8693 12.5988 58.5695 12.5988C53.868 12.5988 50.2662 13.9267 47.2751 16.7596C44.8225 14.437 42.0428 13.2361 38.1634 12.8353L28.4303 3.1015C27.6698 2.34099 26.437 2.34099 25.6765 3.1015L0.72933 28.0494C-0.0114113 28.7894 -0.0357478 29.9849 0.685981 30.7553C0.701191 30.7713 0.71412 30.7873 0.72933 30.8025C0.72933 30.8025 16.9633 47.0113 16.9861 47.0334L16.2986 47.7209C13.6368 50.3827 13.6353 54.6933 16.2993 57.3574C17.5603 58.6168 19.2927 59.3651 21.1879 59.3461C21.1674 61.2162 21.8899 62.9479 23.1828 64.2408C24.4962 65.5542 26.2514 66.2508 28.0714 66.2318C28.0516 68.1004 28.7733 69.8314 30.0662 71.1242C31.3271 72.3836 33.0588 73.132 34.9548 73.113C34.9342 74.9831 35.6567 76.7148 36.9496 78.0076C39.6061 80.6641 43.9281 80.6641 46.5853 78.0076L47.2743 77.3186L47.9634 78.0076C50.6199 80.6641 54.9419 80.6641 57.5991 78.0076C58.8889 76.7178 59.6129 74.9892 59.5947 73.1168C61.4541 73.1358 63.1866 72.4201 64.4833 71.1235C65.8294 69.7774 66.4926 68.0031 66.4743 66.2349C68.3619 66.2546 70.0867 65.52 71.3659 64.2408C72.6611 62.9464 73.3821 61.2117 73.3608 59.3461C75.17 59.3644 76.9291 58.6769 78.2501 57.3566C80.9127 54.6941 80.9127 50.3842 78.2501 47.7209L77.5634 47.0342C91.1378 33.4749 73.9661 50.6603 99.2707 25.3511C100.031 24.5906 100.031 23.3586 99.2707 22.5981ZM4.85969 29.4252L27.0538 7.23186L34.5334 14.7115L12.3439 36.9041L4.85969 29.4252ZM19.0517 54.6036C17.9109 53.4628 17.9109 51.6155 19.0517 50.474L25.9358 43.5898C27.0751 42.4513 28.9269 42.4521 30.0654 43.5898C31.2085 44.7336 31.2085 46.5779 30.0654 47.7209L23.1835 54.6028C22.0443 55.7405 20.1901 55.7405 19.0517 54.6036ZM25.9358 61.4877C24.7943 60.3455 24.7928 58.4989 25.9358 57.3566L32.8185 50.474C33.9615 49.3317 35.8065 49.3309 36.9496 50.474C38.0881 51.6125 38.0927 53.4605 36.9496 54.6028C36.9488 54.6036 36.9488 54.6036 36.9488 54.6043L30.0654 61.4877C28.9269 62.6262 27.0743 62.6262 25.9358 61.4877ZM32.8185 68.3696C31.6777 67.2296 31.6777 65.3816 32.8185 64.2408L39.7027 57.3566C40.8412 56.2181 42.693 56.2181 43.833 57.3581C44.9571 58.4799 44.9905 60.328 43.8323 61.487C43.8323 61.487 43.8323 61.487 43.8315 61.4877L36.9504 68.3689C35.8111 69.5074 33.957 69.5074 32.8185 68.3696ZM39.7027 75.2546C38.5611 74.1123 38.5596 72.2658 39.7027 71.1235L46.5853 64.2408C47.7269 63.0993 49.5734 63.0978 50.7157 64.2408C51.8648 65.3899 51.8481 67.2388 50.7157 68.3704L43.8323 75.2546C42.693 76.3923 40.8412 76.3923 39.7027 75.2546ZM54.8453 75.2546C53.7075 76.3931 51.8549 76.3931 50.7164 75.2546L50.0274 74.5656L53.4695 71.1235C53.7022 70.8907 53.9121 70.6421 54.1068 70.3842L54.8445 71.1227C54.8453 71.1227 54.8453 71.1227 54.846 71.1235L54.8468 71.1242C55.9883 72.2658 55.9883 74.1115 54.8453 75.2546ZM75.497 54.6028C74.3578 55.7405 72.5044 55.7405 71.3659 54.6028L62.4177 45.6553C61.6572 44.8948 60.4244 44.8948 59.6639 45.6553C58.9041 46.4151 58.9041 47.6479 59.6639 48.4084L68.6129 57.3574C69.7544 58.4982 69.7552 60.3447 68.6121 61.4877C67.4691 62.6308 65.6218 62.6262 64.4833 61.4877L55.5351 52.5372C54.7753 51.7775 53.5425 51.7775 52.782 52.5372C52.0215 53.2978 52.0215 54.5306 52.7812 55.2911L61.7295 64.2408C62.8679 65.3793 62.8679 67.2319 61.7295 68.3696C61.1788 68.921 60.4449 69.2252 59.6639 69.2252C57.8136 69.2252 57.2173 67.7681 55.4628 66.2341C55.4453 64.4408 54.7396 62.7578 53.4703 61.4885C52.1789 60.1956 50.4495 59.4739 48.5809 59.4922C48.5999 57.6205 47.8752 55.8911 46.5853 54.6028C45.2392 53.2567 43.4649 52.5943 41.6967 52.6125C41.7355 48.7727 38.6258 45.6865 34.8141 45.7261C34.8331 43.8347 34.0939 42.1121 32.8185 40.8367C30.162 38.1795 25.8392 38.1795 23.1828 40.8367L19.7392 44.2803L15.1 39.6549L38.0143 16.7368C40.8518 17.0608 42.7622 17.8768 44.5137 19.505L39.0129 25.0051C35.9792 28.0411 35.9792 32.9814 39.0136 36.0189C42.0504 39.0533 46.9914 39.0541 50.0274 36.0181L55.5351 30.5112C59.0943 34.0712 72.9022 47.8799 75.4963 50.4747C76.6348 51.6125 76.6348 53.4651 75.497 54.6028ZM74.8095 44.2803L58.2881 27.7582L59.6647 26.3816C60.4252 25.6211 60.4252 24.3883 59.6647 23.6278C58.9041 22.868 57.6721 22.868 56.9108 23.6278L47.2736 33.2658C45.7564 34.783 43.2847 34.783 41.7667 33.2658C40.2495 31.7471 40.2495 29.2761 41.7659 27.7582C43.7631 25.7618 47.6995 21.8261 49.6943 19.8321C52.0032 17.5231 54.7411 16.4926 58.5695 16.4926C61.3233 16.4926 63.7007 15.6652 65.9283 13.913L85.3145 33.8027C72.6421 46.4425 75.1434 43.9472 74.8095 44.2803ZM88.0684 31.0489L68.8015 11.2816L75.8302 4.6598L95.1411 23.9746L88.0684 31.0489Z" fill="#D7A950"/>
</svg>

<svg width="100" height="80" fill="none" xmlns="http://www.w3.org/2000/svg"><path d="M99.27 22.598L77.248.571a1.945 1.945 0 00-2.711-.04c-1.71 1.61-9.75 9.182-9.866 9.295l-.022.02c-1.904 1.904-3.779 2.753-6.078 2.753-4.702 0-8.304 1.328-11.295 4.16-2.453-2.322-5.232-3.523-9.112-3.924L28.43 3.101a1.947 1.947 0 00-2.753 0L.729 28.05a1.943 1.943 0 00-.043 2.706l.043.047s16.234 16.21 16.257 16.231l-.687.688a6.81 6.81 0 000 9.636 6.79 6.79 0 004.889 1.99 6.762 6.762 0 001.995 4.894 6.784 6.784 0 004.888 1.99 6.762 6.762 0 001.995 4.893 6.788 6.788 0 004.889 1.989 6.761 6.761 0 001.995 4.895 6.821 6.821 0 009.635 0l.69-.69.688.69a6.821 6.821 0 009.636 0 6.767 6.767 0 001.996-4.891 6.762 6.762 0 004.888-1.993 6.792 6.792 0 001.991-4.89 6.761 6.761 0 004.892-1.993 6.76 6.76 0 001.995-4.895 6.81 6.81 0 004.89-11.625l-.688-.687c13.575-13.56-3.597 3.626 21.708-21.683.76-.76.76-1.992 0-2.753zM4.86 29.425L27.054 7.232l7.48 7.48-22.19 22.192-7.484-7.479zm14.192 25.179a2.92 2.92 0 010-4.13l6.884-6.884a2.924 2.924 0 014.13 0 2.917 2.917 0 010 4.13l-6.883 6.883a2.928 2.928 0 01-4.131 0zm6.884 6.884a2.918 2.918 0 010-4.131l6.883-6.883a2.918 2.918 0 014.13 0 2.918 2.918 0 010 4.129v.001l-6.884 6.884a2.923 2.923 0 01-4.13 0zm6.883 6.882a2.918 2.918 0 010-4.13l6.884-6.883a2.923 2.923 0 014.13.001 2.918 2.918 0 010 4.129h-.002l-6.88 6.882a2.927 2.927 0 01-4.133 0zm6.884 6.885a2.918 2.918 0 010-4.131l6.882-6.883a2.918 2.918 0 014.13 0 2.92 2.92 0 010 4.13l-6.883 6.884a2.925 2.925 0 01-4.13 0zm15.142 0a2.923 2.923 0 01-4.129 0l-.689-.69 3.442-3.441c.233-.233.443-.482.638-.74l.737.739h.002v.001a2.918 2.918 0 010 4.13zm20.652-20.652a2.927 2.927 0 01-4.131 0l-8.948-8.948a1.947 1.947 0 00-2.754 2.753l8.949 8.95a2.917 2.917 0 010 4.13 2.918 2.918 0 01-4.13 0l-8.948-8.95a1.948 1.948 0 00-2.754 2.753l8.949 8.95a2.923 2.923 0 010 4.129 2.9 2.9 0 01-2.066.855c-1.85 0-2.447-1.457-4.201-2.99a6.761 6.761 0 00-1.993-4.746 6.76 6.76 0 00-4.89-1.997 6.759 6.759 0 00-1.995-4.89 6.792 6.792 0 00-4.888-1.99 6.806 6.806 0 00-6.883-6.886 6.763 6.763 0 00-1.995-4.89 6.82 6.82 0 00-9.636 0l-3.444 3.444-4.639-4.625 22.914-22.918c2.838.324 4.748 1.14 6.5 2.768l-5.501 5.5c-3.034 3.036-3.034 7.976 0 11.014 3.037 3.034 7.978 3.035 11.014 0l5.508-5.508 19.961 19.964a2.922 2.922 0 01.001 4.128zm-.688-10.323L58.29 27.758l1.376-1.376a1.947 1.947 0 10-2.754-2.754l-9.637 9.638a3.9 3.9 0 01-5.507 0 3.902 3.902 0 01-.001-5.508l7.928-7.926c2.31-2.309 5.047-3.34 8.875-3.34 2.754 0 5.132-.827 7.36-2.579l19.385 19.89L74.81 44.28zM88.07 31.05L68.801 11.282 75.83 4.66l19.311 19.315-7.073 7.074z" fill="#D7A950"/></svg>
